icons/chevron-circle-left.svg

<svg width="24" height="24" viewBox="0 0 24 24" fill="none" xmlns="http://www.w3.org/2000/svg">
<path fill-rule="evenodd" clip-rule="evenodd" d="M20.25 12C20.25 7.44365 16.5563 3.75 12 3.75C7.44365 3.75 3.75 7.44365 3.75 12C3.75 16.5563 7.44365 20.25 12 20.25C16.5563 20.25 20.25 16.5563 20.25 12ZM12 2.25C17.3848 2.25 21.75 6.61522 21.75 12C21.75 17.3848 17.3848 21.75 12 21.75C6.61522 21.75 2.25 17.3848 2.25 12C2.25 6.61522 6.61522 2.25 12 2.25Z" fill="black"/>
<path fill-rule="evenodd" clip-rule="evenodd" d="M14.2428 7.81965C14.5357 8.11254 14.5357 8.58741 14.2428 8.88031L11.1231 12L14.2428 15.1196C14.5357 15.4125 14.5357 15.8874 14.2428 16.1803C13.9499 16.4732 13.4751 16.4732 13.1822 16.1803L9.98215 12.9803L10.5125 12.45M10.5125 12.45L9.98215 12.9803C9.71734 12.7155 9.53748 12.3577 9.53748 11.9625C9.53748 11.5794 9.70978 11.2195 10.0238 10.978L13.1822 7.81964C13.4751 7.52675 13.9499 7.52675 14.2428 7.81965M11.0257 11.8992C11.0257 11.8992 11.026 11.8997 11.0266 11.9008L11.0257 11.8992Z" fill="black"/>
</svg>

<svg xmlns="http://www.w3.org/2000/svg" fill="none" viewBox="0 0 24 24">
  <path fill="#000" fill-rule="evenodd" d="M20.25 12a8.25 8.25 0 1 0-16.5 0 8.25 8.25 0 0 0 16.5 0ZM12 2.25c5.385 0 9.75 4.365 9.75 9.75s-4.365 9.75-9.75 9.75S2.25 17.385 2.25 12 6.615 2.25 12 2.25Z" clip-rule="evenodd"/>
  <path fill="#000" fill-rule="evenodd" d="M14.243 7.82a.75.75 0 0 1 0 1.06L11.123 12l3.12 3.12a.75.75 0 0 1-1.06 1.06l-3.2-3.2.53-.53m0 0-.53.53a1.45 1.45 0 0 1-.446-1.018c0-.383.173-.742.487-.984l3.158-3.158a.75.75 0 0 1 1.06 0m-3.216 4.08Z" clip-rule="evenodd"/>
</svg>
